X:0273
M:6/8
L:1/8
Q:3/8=120
K:G
c|B2c ded|ece d2c|BGB def|gfe dcB|
  c2a B2g|ABA AGA|Bdg dBG|AGA BGE|G3 E2D|DEF G2:|

